public/svgs/engagement/sponsorship.svg

<svg width="1em" height="1em" viewBox="0 0 26 30" fill="current" xmlns="http://www.w3.org/2000/svg">
<path d="M3.19124 14.5168C4.79923 14.949 6.39898 15.4149 8.00921 15.8353C8.38779 15.9343 8.52347 16.1024 8.46725 16.4945C8.41777 16.841 8.47999 17.1365 8.76786 17.3934C9.38257 17.9411 9.96279 18.5319 10.5603 19.1008C10.8586 19.3844 11.1652 19.6579 11.4951 19.9604C11.5423 19.8292 11.591 19.7388 11.606 19.643C11.7147 18.9523 11.9853 18.3465 12.4434 17.8334C12.5176 17.7501 12.6278 17.6393 12.6195 17.5513C12.5858 17.1585 12.6023 16.724 12.4419 16.3877C11.8661 15.1808 11.6038 13.8953 11.4711 12.5753C11.4336 12.1997 11.2754 11.9899 11.0138 11.7621C10.4733 11.2914 9.9508 10.7925 9.46503 10.2613C9.03548 9.79223 8.6659 9.26265 8.22586 8.70478C8.28808 9.40172 8.34506 10.0437 8.40278 10.6864C8.3623 10.6974 8.32182 10.7092 8.28209 10.7202C5.64333 7.7234 4.42141 4.0666 3.87042 0.0947266C3.76172 1.42261 3.65152 2.74029 3.6028 4.06032C3.54657 5.56107 3.54133 7.06339 3.52708 8.5657C3.52558 8.72128 3.56756 8.91928 3.66202 9.0285C4.50537 10.0012 5.35547 10.9669 6.22281 11.9161C6.65386 12.3875 7.12388 12.8204 7.57592 13.2707C7.56767 13.3076 7.55943 13.3445 7.55118 13.3815C7.10739 13.3257 6.59613 13.3964 6.23405 13.1858C5.65008 12.8464 5.16206 12.3254 4.63881 11.8736C4.03834 11.3551 3.43113 10.8428 2.8494 10.3014C2.28567 9.77652 1.73768 9.23122 1.20843 8.66942C0.802121 8.23806 0.434795 7.76583 0.0502267 7.31168C0.0337345 7.32503 0.0164922 7.33839 0 7.35253C0.150679 7.88998 0.284116 8.4337 0.455035 8.96407C0.74065 9.84881 1.00303 10.7485 1.3651 11.5986C1.71369 12.4174 2.19121 13.1748 2.58328 13.9747C2.72421 14.2599 2.88614 14.4343 3.19124 14.5168Z" fill="current"/>
<path d="M25.9124 7.26566C25.821 7.38667 25.7363 7.51474 25.6366 7.62789C25.0211 8.32483 24.4446 9.06656 23.776 9.70222C22.716 10.7095 21.5727 11.6194 20.5075 12.6204C19.8905 13.2003 19.2114 13.3881 18.3755 13.2993C18.7803 12.919 19.1754 12.5882 19.5247 12.2111C20.4618 11.2006 21.3883 10.1792 22.2939 9.13885C22.4416 8.96913 22.515 8.68313 22.5323 8.44348C22.5563 8.10954 22.4806 7.77011 22.4738 7.43224C22.4423 5.97078 22.4326 4.50853 22.3906 3.04707C22.3636 2.09869 22.2954 1.15188 22.2407 0.205076C22.2369 0.13986 22.1837 0.0785732 22.1462 0C21.6694 4.07166 20.3306 7.71117 17.6371 10.7252C17.6963 10.0676 17.7563 9.40993 17.823 8.66741C17.7143 8.79784 17.6528 8.85834 17.6064 8.92906C17.0097 9.82794 16.3477 10.6718 15.5029 11.3224C14.8702 11.8096 14.4526 12.3384 14.4286 13.2364C14.4024 14.2241 14.0905 15.1803 13.658 16.0643C13.4473 16.4933 13.3461 16.9262 13.3416 17.3914C13.3401 17.5155 13.4211 17.6475 13.4841 17.7638C13.7539 18.2612 14.0463 18.746 14.2989 19.2528C14.4001 19.4555 14.4204 19.7022 14.4953 19.9992C15.3979 19.1106 16.2338 18.2604 17.0996 17.4464C17.4145 17.1502 17.5809 16.8642 17.4714 16.4116C17.413 16.1696 17.4587 15.948 17.7728 15.8663C19.0509 15.5316 20.3238 15.1725 21.599 14.826C22.4281 14.6005 23.2639 14.4842 23.6373 13.425C24.0173 12.3486 24.7692 11.4465 25.0818 10.3167C25.3592 9.31328 25.692 8.32719 26.0002 7.33324C25.9702 7.30967 25.9409 7.28766 25.9124 7.26566Z" fill="current"/>
<path d="M21.8889 16.0357C21.8867 16.0145 21.8844 15.9925 21.8822 15.9713C22.4774 15.5745 23.0726 15.1777 23.6678 14.7801C23.6528 14.7557 23.6378 14.7314 23.6221 14.707C23.1888 14.8382 22.757 14.9726 22.3222 15.0983C22.0816 15.1683 21.9361 15.2987 21.8439 15.5658C21.712 15.9493 21.5231 16.3154 21.3252 16.6682C20.9728 17.296 20.6752 18.0063 19.8169 18.0212C19.7554 18.022 19.6947 18.037 19.634 18.0448C18.9068 18.1415 18.3138 18.4707 17.8408 19.0757C17.463 19.5589 17.0282 19.9934 16.6166 20.4476C16.1106 21.0062 15.6009 21.561 15.0979 22.1212C15.0237 22.2037 14.9569 22.3051 14.9194 22.4103C14.4607 23.6927 14.0101 24.9789 13.5528 26.262C13.3864 26.7287 13.2073 27.19 13.0071 27.7266C12.4719 26.2416 11.9786 24.8375 11.4561 23.4452C11.2694 22.9486 11.0963 22.4033 10.7702 22.0159C9.90807 20.9921 8.94852 20.0587 8.06094 19.0576C7.56468 18.4974 7.03692 18.077 6.27528 18.0307C5.5024 17.9843 4.95816 17.5702 4.66879 16.8042C4.61482 16.6619 4.5511 16.5126 4.45514 16.4019C4.3427 16.273 4.20251 16.1261 4.05109 16.0876C3.62454 15.9791 3.18525 15.9233 2.75195 15.8432C2.45059 15.7882 2.15073 15.7277 1.85013 15.6696C1.84263 15.6947 1.83513 15.7198 1.82764 15.745C3.26771 17.2929 4.70778 18.84 6.17183 20.413C5.812 20.7595 5.46342 21.0942 5.11483 21.429C5.53389 21.4785 5.91171 21.4494 6.29028 21.4164C6.36299 21.4101 6.43571 21.3755 6.50767 21.3771C6.64711 21.381 6.81878 21.3512 6.92073 21.4235C7.38851 21.7543 7.5047 22.1573 7.34203 22.7254C7.28581 22.9219 7.24083 23.1222 7.1861 23.3194C7.13963 23.4876 7.0849 23.6534 7.03468 23.82C7.39376 23.6487 7.68312 23.4569 7.95074 23.2362C8.13066 23.0869 8.24235 23.1513 8.3518 23.3084C9.53474 25.0001 10.7184 26.691 11.8991 28.3835C12.2717 28.9178 12.6375 29.4568 13.0116 30.0005C14.5986 27.674 16.1571 25.3883 17.7209 23.0963C18.1354 23.3894 18.4765 23.6298 18.8978 23.9276C18.7869 23.5229 18.7037 23.2228 18.6219 22.9219C18.5043 22.4897 18.3086 22.0976 18.7606 21.6757C19.0358 21.4188 19.2239 21.2954 19.5867 21.3858C19.9323 21.4722 20.2997 21.4612 20.6572 21.4934C20.6797 21.4518 20.7022 21.4109 20.7255 21.3693C20.3814 21.0777 20.0365 20.7862 19.6407 20.4515C21.1985 18.7889 22.6625 17.2277 24.1716 15.6169C23.3597 15.7654 22.6243 15.9006 21.8889 16.0357Z" fill="current"/>
<path d="M19.6955 15.8887C19.2915 16.1024 18.8484 16.3829 18.3724 16.5723C18.086 16.6862 17.9459 16.8355 17.9249 17.1576C18.9316 17.2967 19.5921 16.6233 19.6955 15.8887Z" fill="current"/>
<path d="M6.24164 15.8096C6.34884 16.666 7.03626 17.3095 7.96582 17.1194C7.87587 16.9505 7.82039 16.6857 7.70345 16.6511C7.15096 16.4892 6.6427 16.2716 6.24164 15.8096Z" fill="current"/>
<path d="M2.36438 14.7598C2.95735 15.2273 3.50534 15.7639 4.25948 15.9667C4.13129 15.6689 4.0181 15.2949 3.78796 15.1809C3.34941 14.9625 2.84265 14.8918 2.36438 14.7598Z" fill="current"/>
</svg>

<svg xmlns="http://www.w3.org/2000/svg" width="1em" height="1em" fill="current" viewBox="0 0 26 30"><path d="M3.191 14.517c1.608.432 3.208.898 4.818 1.318.379.1.514.267.458.66-.05.346.013.642.3.898.616.548 1.196 1.139 1.793 1.708.299.283.605.557.935.86.047-.132.096-.222.111-.318.109-.69.38-1.297.837-1.81.075-.083.185-.194.177-.282-.034-.392-.018-.827-.178-1.163-.576-1.207-.838-2.493-.97-3.813-.038-.375-.197-.585-.458-.813a19 19 0 0 1-1.549-1.5c-.43-.47-.8-1-1.24-1.557l.178 1.981-.12.034C5.642 7.723 4.42 4.067 3.87.095c-.108 1.328-.218 2.645-.267 3.965-.056 1.501-.062 3.003-.076 4.506-.001.155.04.353.135.462.843.973 1.693 1.939 2.56 2.888.432.471.902.904 1.354 1.355l-.025.11c-.444-.055-.955.015-1.317-.195-.584-.34-1.072-.86-1.595-1.312-.6-.519-1.208-1.031-1.79-1.573A35 35 0 0 1 1.21 8.67C.801 8.24.434 7.766.05 7.312l-.05.04c.15.538.284 1.082.455 1.612.286.885.548 1.784.91 2.635.349.818.826 1.576 1.218 2.376.141.285.303.46.608.542M25.912 7.266c-.091.12-.176.249-.275.362-.616.697-1.192 1.439-1.861 2.074-1.06 1.008-2.203 1.917-3.268 2.918-.617.58-1.297.768-2.133.68.405-.381.8-.712 1.15-1.089a132 132 0 0 0 2.769-3.072c.148-.17.221-.456.238-.696.024-.333-.051-.673-.058-1.01-.032-1.462-.041-2.924-.083-4.386-.027-.948-.096-1.895-.15-2.842C22.237.14 22.184.08 22.146 0c-.477 4.072-1.815 7.711-4.509 10.725.06-.657.12-1.315.186-2.058-.109.13-.17.191-.217.262-.596.899-1.258 1.743-2.103 2.393-.633.488-1.05 1.016-1.074 1.914-.027.988-.338 1.944-.771 2.828-.21.43-.312.862-.316 1.327-.002.125.08.257.142.373.27.497.562.982.815 1.489.101.203.121.45.196.746.903-.888 1.739-1.739 2.605-2.553.314-.296.48-.582.371-1.034-.058-.242-.012-.464.302-.546 1.278-.334 2.55-.694 3.826-1.04.83-.226 1.665-.342 2.038-1.401.38-1.076 1.132-1.979 1.445-3.108.277-1.004.61-1.99.918-2.984z"/><path d="m21.889 16.036-.007-.065 1.786-1.19-.046-.074c-.433.131-.865.266-1.3.391-.24.07-.386.2-.478.468-.132.383-.32.75-.519 1.102-.352.628-.65 1.338-1.508 1.353-.062.001-.122.016-.183.024a2.62 2.62 0 0 0-1.793 1.03c-.378.484-.813.918-1.224 1.373-.506.558-1.016 1.113-1.52 1.673a.9.9 0 0 0-.178.29c-.458 1.282-.909 2.568-1.366 3.851-.167.467-.346.928-.546 1.465-.535-1.485-1.028-2.89-1.55-4.282-.188-.496-.36-1.042-.687-1.43-.862-1.023-1.821-1.956-2.71-2.957-.495-.56-1.023-.981-1.785-1.027-.773-.047-1.317-.46-1.606-1.227a1.3 1.3 0 0 0-.214-.402c-.112-.129-.252-.276-.404-.314-.426-.109-.866-.165-1.3-.245q-.45-.084-.9-.173l-.023.075 4.344 4.668-1.057 1.016c.419.05.797.02 1.175-.013.073-.006.146-.04.218-.039.14.004.31-.026.413.047.468.33.584.733.421 1.301-.056.197-.101.397-.156.594-.046.169-.101.334-.151.501.359-.171.648-.363.916-.584.18-.15.291-.085.4.072q1.776 2.537 3.548 5.076c.373.534.739 1.073 1.113 1.616l4.709-6.904 1.177.832-.276-1.006c-.118-.432-.313-.824.139-1.246.275-.257.463-.38.826-.29.345.086.713.075 1.07.107l.069-.124-1.085-.918c1.558-1.662 3.022-3.223 4.53-4.834z"/><path d="M19.696 15.889c-.405.213-.848.494-1.324.683-.286.114-.426.264-.447.586 1.007.139 1.667-.535 1.77-1.27M6.242 15.81c.107.856.794 1.5 1.724 1.31-.09-.17-.146-.434-.263-.469-.552-.162-1.06-.38-1.461-.841M2.364 14.76c.593.467 1.141 1.004 1.895 1.207-.128-.298-.24-.672-.471-.786-.439-.218-.945-.29-1.424-.421"/></svg>
